X:1
T:Gib dich zufrieden
T:Gib dich zufrieden
T:BWV 512
T:Johann Sebastian Bach
C:Johann Sebastian Bach
%%score 1 2
L:1/8
M:4/4
K:C
V:1 bass 
V:2 treble 
V:1
 x8 |[K:Emin][M:4/4][Q:1/4=72] (3:2:1TE,, x22/3 | E,^D,E,F, G,F,G,A, | B,A,B,B,, E,B,,G,,B,, | %4
 E,, E,2 D, C, C2 B, | A,2 G,2 D,2 G,,E,, | E,^D,E,F, G,F,G,A, | B,A,B,B,, E,B,,G,,B,, | %8
 E,, E,2 D, C, C2 B, | A,2 G,2 D,2 G,, || G, x7 | F,D,G,G,, D,E,D,C, | B,,2 E,2 !fermata!A,,3 A, | %13
 B,A,G,F, G,F,E,D, | C,B,, A,,2 !fermata!B,,3 G, | A,2 F,2 G,B,CA, | B,A,B,B,, !fermata!E,3 |] %17
V:2
 B x7 | G2 (AB/c/) B3 A | GF FG/A/ GF !fermata!E2 | cB B2 ed d2 | Fc BA A2 GB | G2 (AB/c/) B3 A | %6
w: Gib|dich zu- * * frie- den,|und * sei * * stil- * le|In * dem Got- * te|dei- * nes * Le- bens. In|Ihm ruht * * al- ler|
 GF FG/A/ GF !fermata!E2 | cB B2 ed d2 | Fc BA A2 G x | B x6 || A2 (BA/G/) A2 Bc | %11
w: Freu- * den * * F"ul- * le,|Ohn' * Ihn m"uhst * du|dich * ver- * ge- bens.|Er|ist dein * * Quell und *|
 dc cB cB!fermata!Ac | F2 (e^d) (e/f/g) cB | Aa fe ^d^c!fermata!Be | (dc) (BA) B^DEA | %15
w: dei- * ne * Son- * ne, Scheint|t"ag- lich * hell * * zu *|dei- * ner * Won- * ne. Gib|dich * zu- * frie- * den, zu-|
 (G2 TFE) !fermata!E3 x | x7 |] %17
w: frie- * * den.||

